32x32/places/folder-cyan-unlocked.svg

<svg xmlns="http://www.w3.org/2000/svg" width="32" height="32" version="1">
 <rect style="opacity:0.2" width="28" height="18" x="2" y="11" rx="1.4" ry="1.4"/>
 <path style="fill:#0badff" d="M 2,22.6 C 2,23.376 2.6244,24 3.4,24 H 28.6 C 29.376,24 30,23.376 30,22.6 V 7.4 C 30,6.6244 29.376,6 28.6,6 H 16 C 13.9,6 13.2,3 11.1,3 H 3.4 C 2.6244,3 2,3.6244 2,4.4"/>
 <rect style="opacity:0.2" width="28" height="18" x="2" y="9" rx="1.4" ry="1.4"/>
 <rect style="fill:#f4f4f7" width="24" height="11" x="4" y="8" rx="1.4" ry="1.4"/>
 <rect style="fill:#00bcd4" width="28" height="18" x="2" y="10" rx="1.4" ry="1.4"/>
 <path style="opacity:0.1;fill:#f4f4f7" d="M 3.4004,3 C 2.6248,3 2,3.6248 2,4.4004 V 5.4004 C 2,4.6248 2.6248,4 3.4004,4 H 11.1 C 13.2,4 13.9,7 16,7 H 28.6 C 29.375,7 30,7.6248 30,8.4004 V 7.4004 C 30,6.6248 29.375,6 28.6,6 H 16 C 13.9,6 13.2,3 11.1,3 Z"/>
 <path style="fill:#00caff" d="M 16 13 C 14.34 13 13 14.3 13 16 L 14 16 C 14 14.9 14.89 14 16 14 C 17.11 14 18 14.9 18 16 L 18 18 L 15 18 L 14 18 L 13 18 L 12.5 18 C 12.223 18 12 18.223 12 18.5 L 12 23.5 C 12 23.777 12.223 24 12.5 24 L 19.5 24 C 19.777 24 20 23.777 20 23.5 L 20 18.5 C 20 18.223 19.777 18 19.5 18 L 19 18 L 19 16 C 19 14.3 17.66 13 16 13 z"/>
</svg>

<svg xmlns="http://www.w3.org/2000/svg" width="32" height="32" version="1"><rect style="opacity:.2" width="28" height="18" x="2" y="11" rx="1.4" ry="1.4"/><path style="fill:#0badff" d="M2 22.6c0 .776.624 1.4 1.4 1.4h25.2c.776 0 1.4-.624 1.4-1.4V7.4c0-.776-.624-1.4-1.4-1.4H16c-2.1 0-2.8-3-4.9-3H3.4C2.624 3 2 3.624 2 4.4"/><rect style="opacity:.2" width="28" height="18" x="2" y="9" rx="1.4" ry="1.4"/><rect style="fill:#f4f4f7" width="24" height="11" x="4" y="8" rx="1.4" ry="1.4"/><rect style="fill:#00bcd4" width="28" height="18" x="2" y="10" rx="1.4" ry="1.4"/><path style="opacity:.1;fill:#f4f4f7" d="M3.4 3C2.625 3 2 3.625 2 4.4v1C2 4.625 2.625 4 3.4 4h7.7c2.1 0 2.8 3 4.9 3h12.6c.775 0 1.4.625 1.4 1.4v-1c0-.775-.625-1.4-1.4-1.4H16c-2.1 0-2.8-3-4.9-3z"/><path style="fill:#00caff" d="M16 13c-1.66 0-3 1.3-3 3h1a2 2 0 1 1 4 0v2h-5.5c-.277 0-.5.223-.5.5v5c0 .277.223.5.5.5h7c.277 0 .5-.223.5-.5v-5c0-.277-.223-.5-.5-.5H19v-2c0-1.7-1.34-3-3-3z"/></svg>
